X:0702
T:Leap over the Garter.
M:2/4
L:1/8
Q:1/4=104
P:ABA % Aird prints a da capo
I: :: || DC
Z:Jack Campin * www.campin.me.uk * 2009
K:D
P:A
a>b (a/g/f/e/)|dddf|egce    |(d/c/d/e/) (d/e/f/g/) |\
a>b (a/g/f/e/)|dddf|egce    | d2         d2       :|
P:B
fffa          |eeeg|fa/f/ ge|(c/d/e/c/)  dA        |\
fffa          |eeea|fa/f/ ge|(a/g/a/b/) (a/g/f/e/):|
<end>
<start>
